public/Expenses.svg

<svg width="40.000000" height="40.000000" viewBox="0 0 40 40" fill="none" xmlns="http://www.w3.org/2000/svg" xmlns:xlink="http://www.w3.org/1999/xlink">
	<desc>
			Created with Pixso.
	</desc>
	<defs/>
	<rect id="Frame 42" rx="7.500000" width="39.000000" height="39.000000" transform="translate(0.500000 0.500000)" fill="#FFF6EE" fill-opacity="1.000000"/>
	<path id="Combo shape" d="M14 11L26 11C28.2091 11 30 12.7909 30 15C30 16.6787 28.9659 18.1159 27.5 18.7092L27.5 15C27.5 14.6022 27.342 14.2206 27.0607 13.9393C26.7794 13.658 26.3978 13.5 26 13.5L14 13.5C13.6022 13.5 13.2206 13.658 12.9393 13.9393C12.658 14.2206 12.5 14.6022 12.5 15L12.5 18.7092C11.0341 18.1159 10 16.6787 10 15C10 12.7909 11.7909 11 14 11ZM26 15L26 27C26 28.1046 25.1046 29 24 29L16 29C14.8954 29 14 28.1046 14 27L14 15L26 15ZM20.75 23.1895L20.75 19.0002C20.75 18.5802 20.42 18.2502 20 18.2502C19.58 18.2502 19.25 18.5802 19.25 19.0002L19.25 23.1895L18.5303 22.4698C18.2333 22.1728 17.7667 22.1728 17.4697 22.4698C17.1727 22.7668 17.1727 23.2335 17.4697 23.5305L18.7626 24.8234Q18.896 24.9568 19.0509 25.0568L19.051 25.0569Q19.188 25.1454 19.3419 25.2077Q19.4944 25.2696 19.6529 25.3016L19.6529 25.3016Q19.823 25.3359 20 25.3359Q20.177 25.3359 20.3472 25.3016L20.3472 25.3016Q20.5057 25.2696 20.6581 25.2077Q20.812 25.1453 20.949 25.0569L20.9491 25.0568Q21.104 24.9568 21.2374 24.8234L22.5303 23.5305C22.8273 23.2335 22.8273 22.7668 22.5303 22.4698C22.2333 22.1728 21.7667 22.1728 21.4697 22.4698L20.75 23.1895Z" clip-rule="evenodd" fill="#FFB26A" fill-opacity="1.000000" fill-rule="evenodd"/>
</svg>

<svg width="40" height="40" fill="none" xmlns="http://www.w3.org/2000/svg"><rect rx="7.5" width="39" height="39" transform="translate(.5 .5)" fill="#FFF6EE"/><path d="M14 11h12a4 4 0 0 1 1.5 7.71V15a1.5 1.5 0 0 0-1.5-1.5H14a1.5 1.5 0 0 0-1.5 1.5v3.71A4.001 4.001 0 0 1 14 11Zm12 4v12a2 2 0 0 1-2 2h-8a2 2 0 0 1-2-2V15h12Zm-5.25 8.19V19c0-.42-.33-.75-.75-.75s-.75.33-.75.75v4.19l-.72-.72a.743.743 0 0 0-1.06 0 .743.743 0 0 0 0 1.06l1.293 1.293q.133.134.288.234.137.088.29.15.153.063.312.095.17.034.347.034.177 0 .347-.034.159-.032.311-.094.154-.063.291-.151.155-.1.288-.234l1.293-1.293a.743.743 0 0 0 0-1.06.743.743 0 0 0-1.06 0l-.72.72Z" clip-rule="evenodd" fill="#FFB26A" fill-rule="evenodd"/></svg>
